X:1
T:Star of Day, LM
T:Star of Day, LM
T:Harmonia Sacra
T:Public Domain Courtesy of the Cyber Hymnal™
C:Harmonia Sacra
Z:Public Domain
Z:Courtesy of the Cyber Hymnal™
%%score ( 1 2 ) ( 3 4 )
L:1/8
Q:1/4=140
M:4/4
K:Eb
V:1 treble 
V:2 treble 
V:3 bass 
V:4 bass 
V:1
 E4 | [EG]2 [EB]2 [EG]2 E2 | [DF]4 [DF]4 | [EG]4 [EG]4 | [EA]2 [EB]2 [Ec]2 [EB]2 | [EB]4 [E=A]4 | %6
 [DB]4 [EB]4 | [EG]2 [EG]2 [EG]2 E2 | [EA]4 [EB]4 | [Ec]4 [DB]4 | [EG]2 [EG]2 [EG]2 [EB]2 | %11
 [B,E]4 [DF]4 | E4 |] %13
V:2
 E4 | x6 E2 | x8 | x8 | x8 | x8 | x8 | x6 E2 | x8 | x8 | x8 | x8 | E4 |] %13
V:3
 [E,G,]4 | [E,B,]2 [E,G,]2 [E,B,]2 [B,,G,]2 | [B,,A,]4 [B,,B,]4 | [E,B,]4 [E,B,]4 | %4
 [C,A,]2 [B,,G,]2 [A,,A,]2 [B,,G,]2 | [C,F,]4 [F,C]4 | [B,,B,]4 [E,G,]4 | %7
 [E,B,]2 [E,B,]2 [E,B,]2 [E,G,]2 | [C,A,]4 [E,G,]4 | A,4 [B,,A,]4 | %10
 [E,G,]2 [E,G,]2 [E,G,]2 [G,,B,]2 | [B,,G,]4 (B,2 A,2) | [E,G,]4 |] %13
V:4
 x4 | x8 | x8 | x8 | x8 | x8 | x8 | x8 | x8 | A,4 x4 | x8 | x4 B,,4 | x4 |] %13

